X:1
T:Title
%%score { 1 | ( 2 3 ) }
L:1/8
Q:1/4=116
M:6/8
K:F
V:1 treble nm="Grand Piano"
V:2 bass 
V:3 bass 
V:1
 C3 [CF]2 G | A3 A3 | [DG]2 [DF] [DF]ED | C6 | D3 [DF]2 D | C3 [CF]3 | [=B,G]2 [B,F] [B,E]2 [B,F] | %7
w: M.~E.~Upham * *|||||||
 G6 | C3 [CF]2 G | A3 A3 | [DG]2 [CF] [DF]ED | C6 | D3 [DF]2 D | C3 A3 | [EA]2 [EG] [EA]2 [EG] | %15
w: ||||||||
 F6 | A3 A2 _A | A3 F3 | [DFB]2 [DFB] [DF]2 [^CFG] | A6 | c3 d2 d | c3 A2 A | %22
w: |||||||
 [=B,FA]3 [B,FG]2 [B,FA] | [CEG]6 | [CFA]3 [CFA]2 [=B,F_A] | [CFA]3 [A,CF]3 | [DFB]3 [DF]2 [^CFG] | %27
w: |||||
 A6 | c3 d2 d | c2 A [CF]2 [DFG] | [CFA]3 [B,EG]3 | [A,CF]6 |] %32
w: |||||
V:2
 [F,A,]3 [A,,F,]2 [C,E,C] | [F,C]3 [F,C]3 | [B,,F,]2 [B,,F,] z C[D,F,B,] | [F,A,]6 | %4
 [B,,F,B,]3 [B,,F,]2 [D,F,B,] | [F,A,]3 [A,,F,]3 | [G,,D,]2 [G,,D,] [G,,G,]2 [G,,D,] | [C,E,B,]6 | %8
 [F,A,]3 [A,,F,]2 [C,E,C] | [F,C]3 [F,C]3 | [B,,F,]2 [B,,F,] z C[D,F,B,] | [F,A,]6 | %12
 [B,,F,B,]3 [B,,F,]2 [D,F,B,] | [F,A,]3 [F,C]3 | [C,C]2 [C,B,] [C,C]2 [B,,B,] | [F,A,C]6 | %16
 [F,CF]3 [F,CF]2 [F,=B,F] | [F,CF]3 [F,A,C]3 | B,,2 B,, B,,2 B,, | [F,CF]6 | %20
 [F,A,F]3 [F,B,F]2 [F,B,F] | [F,A,F]3 [F,CF]2 [F,CF] | D,3 G,2 G, | C,6 | F,3 F,2 F, | F,3 F,3 | %26
 B,,3 B,,2 B,, | [F,CF]6 | [F,A,F]3 [F,B,F]2 [F,B,F] | [F,A,F]2 [F,CF] A,,2 B,, | C,3 C,3 | F,6 |] %32
V:3
 x6 | x6 | z3 .[B,,F,]3 | x6 | x6 | x6 | x6 | x6 | x6 | x6 | z3 .[B,,F,]3 | x6 | x6 | x6 | x6 | %15
 x6 | x6 | x6 | x6 | x6 | x6 | x6 | x6 | x6 | x6 | x6 | x6 | x6 | x6 | x6 | x6 | x6 |] %32

